X:1
T: The Rose of Tankerton
N:
C:Pat Shaw
S: Play  3  times
A:
O:
R:
M:6/8
K:G
I:speed 150
%W: A1
% voice 1 (1 lines, 40 notes)
K:G
M:6/8
L:1/16
B c |d4 d2 A2 B2 c2 B4 A2 G4 D2 E2 D2 E2 D4 D2 E2 D2 E2 D4 B c |d4 d2 A2 B2 c2 B4 A2 G4 D2 E2 F2 G2 G4 F2 G6G4 B c |
%W: A2
% voice 1 (1 lines, 38 notes)
d4 d2 A2 B2 c2 B4 A2 G4 D2 E2 D2 E2 D4 D2 E2 D2 E2 D4 B c |d4 d2 A2 B2 c2 B4 A2 G4 D2 E2 F2 G2 G4 F2 G6G4 B c |
%W: B1
% voice 1 (1 lines, 38 notes)
d4 d2 d2 e2 f2 g4 f2 e4 d2 e4 d2 c4 B2 A2 B2 G2 A4 B c |d4 d2 d2 e2 f2 g4 f2 e4 d2 ^c2 d2 e2 A2 d2 c2 g6g4 B c |
%W:
% voice 1 (1 lines, 38 notes)
d4 d2 G2 A2 B2 c4 B2 A4 D2 E2 F2 G2 D4 D2 E2 F2 G2 A4 B c |d4 d2 G2 A2 B2 c4 B2 A4 D2 E2 F2 G2 G4 F2 G6G4 B c |
%W: B2
% voice 1 (1 lines, 38 notes)
d4 d2 d2 e2 f2 g4 f2 e4 d2 e4 d2 c4 B2 A2 B2 G2 A4 B c |d4 d2 d2 e2 f2 g4 f2 e4 d2 ^c2 d2 e2 A2 d2 c2 g6g4 B c |
%W:
% voice 1 (1 lines, 36 notes)
d4 d2 G2 A2 B2 c4 B2 A4 D2 E2 F2 G2 D4 D2 E2 F2 G2 A4 B c |d4 d2 G2 A2 B2 c4 B2 A4 D2 E2 F2 G2 G4 F2 G6G4 ||
